X: 1551
T: Larry Lavin's Choice
T: ro.ga la.mrais ui la.bain.
R: reel
B: O'Neill's 1850 "Music of Ireland" #1551
N: no source given.
Z: transcribed by John B. Walsh, walsh@math.ubc.ca 8/23/96
M: C|
L: 1/8
K: D
(dB) !segno!|: A2(FA) ABdf | edfd edBd | A2(FA) ABdB | AFEG [1 FDDB :|[2 FD |]
|: D2 | FAdA BAdA | Beed (cA) A2 |1 FAdA BAdF | GFEG (FD) :|2 FAAc BAdB | AFEG (FD) !segno!D2 |]
